; generated by Slic3r 1.2.9 on 2016-04-19 at 00:14:30

; external perimeters extrusion width = 0.80mm
; perimeters extrusion width = 1.34mm
; infill extrusion width = 1.34mm
; solid infill extrusion width = 1.34mm
; top infill extrusion width = 1.34mm
; support material extrusion width = 0.80mm

M190 S110 ; set bed temperature
M104 S240 ; set temperature
G28 ; home all axes
G1 Z5 F5000 ; lift nozzle

M109 S240 ; wait for temperature to be reached
G21 ; set units to millimeters
G90 ; use absolute coordinates
M82 ; use absolute distances for extrusion
G92 E0
G1 Z0.400 F6000.000
G1 E-3.00000 F2400.00000
G92 E0
G1 X52.811 Y30.127 F6000.000
G1 E3.00000 F2400.00000
G1 X53.327 Y29.220 E3.11771 F1800.000
G1 X55.083 Y27.721 E3.37822
G1 X57.243 Y26.905 E3.63873
G1 X58.501 Y26.786 E3.78120
G1 X101.500 Y26.786 E8.63265
G1 X103.774 Y27.183 E8.89316
G1 X105.780 Y28.327 E9.15367 F1800.000
G1 X107.279 Y30.083 E9.41419
G1 X108.095 Y32.243 E9.67470
G1 X108.214 Y33.501 E9.81717
G1 X108.214 Y126.499 E20.30996
G1 X107.817 Y128.774 E20.57047
G1 X106.673 Y130.780 E20.83099
G1 X104.917 Y132.279 E21.09150
G1 X102.757 Y133.095 E21.35201
G1 X101.500 Y133.214 E21.49448
G1 X78.499 Y133.214 E24.08950
G1 X76.464 Y133.131 E24.31934
G1 X75.889 Y133.081 E24.38445
G1 X75.010 Y132.967 E24.48445
G1 X74.147 Y132.853 E24.58269
G1 X73.572 Y132.751 E24.64862
G1 X71.869 Y132.373 E24.84544
G1 X71.309 Y132.223 E24.91082
G1 X69.635 Y131.695 E25.10884
G1 X69.096 Y131.499 E25.17352
G1 X67.477 Y130.829 E25.37132
G1 X66.948 Y130.582 E25.43714
G1 X65.395 Y129.774 E25.63464
G1 X64.898 Y129.486 E25.69950
G1 X63.417 Y128.542 E25.89763
G1 X62.934 Y128.204 E25.96411
G1 X61.557 Y127.147 E26.16003
G1 X61.114 Y126.775 E26.22527
G1 X59.821 Y125.592 E26.42298
G1 X59.405 Y125.176 E26.48940
G1 X58.227 Y123.889 E26.68625
G1 X57.855 Y123.445 E26.75157
G1 X56.792 Y122.061 E26.94847
G1 X56.452 Y121.577 E27.01519
G1 X55.515 Y120.105 E27.21206
G1 X55.226 Y119.604 E27.27730
G1 X54.418 Y118.052 E27.47474
G1 X54.171 Y117.524 E27.54052
G1 X53.840 Y116.725 E27.63810
G1 X53.499 Y115.897 E27.73911
G1 X53.310 Y115.378 E27.80143
G1 X52.775 Y113.686 E28.00168
G1 X52.628 Y113.138 E28.06568
G1 X52.247 Y111.414 E28.26486
G1 X52.149 Y110.858 E28.32854
G1 X51.919 Y109.121 E28.52631
G1 X51.868 Y108.532 E28.59300
G1 X51.786 Y106.499 E28.82250
G1 X51.786 Y33.501 E37.05875
G1 X52.183 Y31.226 E37.31926
G1 X52.751 Y30.231 E37.44853
G1 E34.44853 F2400.00000
G92 E0
G1 X90.782 Y34.793 F6000.000
G1 E3.00000 F2400.00000
G1 X91.086 Y35.026 E3.04322 F1800.000
G1 X91.485 Y35.068 E3.08848
G1 X91.755 Y35.047 E3.11900
G1 X92.021 Y34.979 E3.15007
G1 X92.271 Y34.865 E3.18096
G1 X92.495 Y34.711 E3.21170
G1 X92.691 Y34.519 E3.24266
G1 X92.847 Y34.301 E3.27298
G1 X92.928 Y34.145 E3.29279
G1 X93.009 Y33.925 E3.31917
G1 X93.046 Y33.756 E3.33875
G1 X93.072 Y33.412 E3.37766
G1 X93.072 Y31.874 E3.55123
G1 X95.373 Y29.573 E3.91837
G1 X103.126 Y29.573 E4.79322
G1 X105.427 Y31.874 E5.16036
G1 X105.427 Y128.126 E16.02028
G1 X103.126 Y130.427 E16.38741
G1 X78.457 Y130.427 E19.17078
G1 X76.503 Y130.344 E19.39148
G1 X74.429 Y130.080 E19.62731
G1 X72.391 Y129.635 E19.86275
G1 X72.136 Y129.563 E19.89263
G1 X70.238 Y128.956 E20.11747
G1 X68.309 Y128.150 E20.35329
G1 X66.463 Y127.180 E20.58855
G1 X64.844 Y126.148 E20.80515
G1 X63.186 Y124.885 E21.04040
G1 X61.641 Y123.481 E21.27597
G1 X60.225 Y121.945 E21.51159
G1 X58.949 Y120.296 E21.74684
G1 X57.736 Y118.391 E22.00168
G1 X56.778 Y116.536 E22.23728
G1 X55.989 Y114.609 E22.47212
G1 X55.409 Y112.773 E22.68940
G1 X54.950 Y110.736 E22.92504
G1 X54.670 Y108.671 E23.16016
G1 X54.573 Y106.542 E23.40056
G1 X54.573 Y31.874 E31.82519
G1 X56.874 Y29.573 E32.19232
G1 X88.629 Y29.573 E35.77523
G1 X90.736 Y34.682 E36.39876
G1 E33.39876 F2400.00000
G92 E0
G1 X88.151 Y30.287 F6000.000
G1 E3.00000 F2400.00000
G1 X89.792 Y34.264 E3.48535 F1800.000
G1 X89.704 Y34.350 E3.49923
G1 X89.717 Y34.962 E3.56829
G1 X90.178 Y35.361 E3.63706
G1 X90.521 Y35.562 E3.68189
G1 X90.894 Y35.701 E3.72679
G1 X91.283 Y35.773 E3.77144
G1 X91.717 Y35.772 E3.82037
G1 X92.077 Y35.708 E3.86165
G1 X92.296 Y35.640 E3.88753
G1 X92.628 Y35.485 E3.92888
G1 X92.822 Y35.361 E3.95491
G1 X93.103 Y35.125 E3.99621
G1 X93.259 Y34.955 E4.02233
G1 X93.467 Y34.657 E4.06324
G1 X93.576 Y34.448 E4.08990
G1 X93.651 Y34.263 E4.11246
G1 X93.745 Y33.910 E4.15366
G1 X93.785 Y33.442 E4.20664
G1 X93.786 Y32.169 E4.35021
G1 X95.668 Y30.287 E4.65059
G1 X102.831 Y30.287 E5.45869
G1 X104.713 Y32.169 E5.75907
G1 X104.713 Y127.831 E16.55225
G1 X102.831 Y129.713 E16.85263
G1 X78.465 Y129.713 E19.60175
G1 X76.549 Y129.631 E19.81811
G1 X74.399 Y129.349 E20.06277
G1 X72.426 Y128.905 E20.29097
G1 X70.496 Y128.290 E20.51947
G1 X68.753 Y127.569 E20.73230
G1 X66.953 Y126.638 E20.96093
G1 X65.127 Y125.474 E21.20525
G1 X63.527 Y124.239 E21.43332
G1 X62.135 Y122.965 E21.64628
G1 X60.672 Y121.367 E21.89060
G1 X59.525 Y119.874 E22.10312
G1 X58.432 Y118.168 E22.33170
G1 X57.432 Y116.248 E22.57598
G1 X56.665 Y114.379 E22.80390
G1 X56.095 Y112.574 E23.01747
G1 X55.628 Y110.464 E23.26124
G1 X55.368 Y108.451 E23.49026
G1 X55.287 Y106.534 E23.70671
G1 X55.287 Y32.169 E32.09709
G1 X57.169 Y30.287 E32.39748
G1 X88.031 Y30.287 E35.87954
G1 X87.673 Y31.001 F6000.000
G1 X88.949 Y34.094 E36.25704 F1800.000
G1 X88.814 Y34.228 E36.27846
G1 X88.742 Y34.691 E36.33133
G1 X89.035 Y35.206 E36.39815
G1 X89.196 Y35.418 E36.42816
G1 X89.391 Y35.631 E36.46082
G1 X89.768 Y35.947 E36.51626
G1 X89.986 Y36.087 E36.54552
G1 X90.219 Y36.210 E36.57525
G1 X90.490 Y36.322 E36.60832
G1 X90.965 Y36.449 E36.66386
G1 X91.221 Y36.485 E36.69302
G1 X91.779 Y36.485 E36.75591
G1 X92.262 Y36.399 E36.81127
G1 X92.540 Y36.311 E36.84422
G1 X92.985 Y36.104 E36.89961
G1 X93.232 Y35.946 E36.93266
G1 X93.439 Y35.786 E36.96214
G1 X93.786 Y35.439 E37.01761
G1 X93.963 Y35.208 E37.05033
G1 X94.101 Y34.987 E37.07977
G1 X94.312 Y34.538 E37.13572
G1 X94.398 Y34.263 E37.16825
G1 X94.488 Y33.744 E37.22772
G1 X94.500 Y32.465 E37.37200
G1 X95.964 Y31.001 E37.60563
G1 X102.535 Y31.001 E38.34698
G1 X103.999 Y32.465 E38.58061
G1 X103.999 Y127.535 E49.30703
G1 X102.535 Y128.999 E49.54066
G1 X78.383 Y128.996 E52.26567
G1 X76.487 Y128.909 E52.47975
G1 X74.538 Y128.649 E52.70159
G1 X72.625 Y128.219 E52.92282
G1 X70.755 Y127.624 E53.14429
G1 X69.041 Y126.915 E53.35357
G1 X67.297 Y126.012 E53.57513
G1 X65.550 Y124.898 E53.80892
G1 X63.998 Y123.702 E54.03005
G1 X62.629 Y122.449 E54.23943
G1 X61.230 Y120.920 E54.47320
G1 X60.101 Y119.451 E54.68225
G1 X59.042 Y117.797 E54.90378
G1 X58.085 Y115.960 E55.13751
G1 X57.341 Y114.148 E55.35851
G1 X56.781 Y112.374 E55.56838
G1 X56.334 Y110.355 E55.80171
G1 X56.081 Y108.405 E56.02359
G1 X56.001 Y106.527 E56.23571
G1 X56.001 Y32.465 E64.59184
G1 X57.465 Y31.001 E64.82547
G1 X87.553 Y31.001 E68.22023
G1 X87.195 Y31.715 F6000.000
G1 X88.107 Y33.924 E68.48987 F1800.000
G1 X87.997 Y34.033 E68.50729
G1 X87.901 Y34.421 E68.55237
G1 X88.006 Y34.756 E68.59197
G1 X88.128 Y35.055 E68.62840
G1 X88.291 Y35.368 E68.66827
G1 X88.467 Y35.641 E68.70486
G1 X88.648 Y35.876 E68.73834
G1 X88.862 Y36.114 E68.77446
G1 X89.101 Y36.334 E68.81109
G1 X89.383 Y36.550 E68.85122
G1 X89.656 Y36.722 E68.88762
G1 X90.215 Y36.983 E68.95722
G1 X90.524 Y37.082 E68.99380
G1 X90.871 Y37.159 E69.03392
G1 X91.191 Y37.200 E69.07033
G1 X91.808 Y37.200 E69.13996
G1 X92.128 Y37.159 E69.17631
G1 X92.446 Y37.090 E69.21308
G1 X92.785 Y36.983 E69.25310
G1 X93.082 Y36.858 E69.28953
G1 X93.342 Y36.723 E69.32258
G1 X93.617 Y36.550 E69.35918
G1 X93.874 Y36.354 E69.39565
G1 X94.135 Y36.115 E69.43563
G1 X94.354 Y35.874 E69.47236
G1 X94.549 Y35.618 E69.50864
G1 X94.706 Y35.371 E69.54166
G1 X94.871 Y35.053 E69.58201
G1 X94.995 Y34.753 E69.61867
G1 X95.089 Y34.448 E69.65475
G1 X95.197 Y33.839 E69.72446
G1 X95.214 Y32.761 E69.84613
G1 X96.260 Y31.715 E70.01301
G1 X102.239 Y31.715 E70.68761
G1 X103.285 Y32.761 E70.85449
G1 X103.285 Y127.239 E81.51415
G1 X102.239 Y128.285 E81.68103
G1 X78.442 Y128.284 E84.36601
G1 X76.564 Y128.199 E84.57806
G1 X74.678 Y127.948 E84.79277
G1 X72.825 Y127.533 E85.00702
G1 X71.013 Y126.958 E85.22146
G1 X69.328 Y126.261 E85.42718
G1 X67.641 Y125.386 E85.64167
G1 X65.972 Y124.322 E85.86493
G1 X64.468 Y123.164 E86.07912
G1 X63.123 Y121.933 E86.28492
G1 X61.787 Y120.473 E86.50814
G1 X60.677 Y119.028 E86.71372
G1 X59.653 Y117.426 E86.92820
G1 X58.739 Y115.672 E87.15139
G1 X58.017 Y113.917 E87.36547
G1 X57.467 Y112.175 E87.57163
G1 X57.040 Y110.246 E87.79452
G1 X56.800 Y108.438 E88.00035
G1 X56.715 Y106.519 E88.21705
G1 X56.715 Y32.761 E96.53893
G1 X57.761 Y31.715 E96.70581
G1 X87.075 Y31.715 E100.01327
G1 X86.717 Y32.429 F6000.000
G1 X87.264 Y33.755 E100.17505 F1800.000
G1 X87.216 Y33.802 E100.18267
G1 X87.113 Y34.156 E100.22421
G1 X87.220 Y34.632 E100.27923
G1 X87.334 Y35.000 E100.32272
G1 X87.480 Y35.357 E100.36628
G1 X87.656 Y35.698 E100.40961
G1 X87.864 Y36.026 E100.45342
G1 X88.119 Y36.359 E100.50065
G1 X88.380 Y36.642 E100.54413
G1 X88.665 Y36.901 E100.58759
G1 X88.947 Y37.118 E100.62772
G1 X89.272 Y37.326 E100.67122
G1 X89.643 Y37.519 E100.71836
G1 X90.001 Y37.666 E100.76204
G1 X90.369 Y37.780 E100.80555
G1 X90.716 Y37.857 E100.84568
G1 X91.097 Y37.909 E100.88911
G1 X91.485 Y37.927 E100.93284
G1 X91.870 Y37.912 E100.97640
G1 X92.253 Y37.863 E101.01986
G1 X92.661 Y37.772 E101.06707
G1 X93.029 Y37.655 E101.11070
G1 X93.385 Y37.506 E101.15417
G1 X93.700 Y37.342 E101.19422
G1 X94.027 Y37.135 E101.23785
G1 X94.334 Y36.902 E101.28139
G1 X94.641 Y36.620 E101.32839
G1 X94.902 Y36.333 E101.37214
G1 X95.135 Y36.027 E101.41557
G1 X95.325 Y35.727 E101.45562
G1 X95.518 Y35.356 E101.50282
G1 X95.666 Y34.998 E101.54653
G1 X95.780 Y34.632 E101.58982
G1 X95.862 Y34.254 E101.63343
G1 X95.912 Y33.869 E101.67723
G1 X95.928 Y33.057 E101.76890
G1 X96.556 Y32.429 E101.86903
G1 X101.943 Y32.429 E102.47688
G1 X102.571 Y33.057 E102.57701
G1 X102.571 Y126.943 E113.16992
G1 X101.943 Y127.571 E113.27005
G1 X78.465 Y127.570 E115.91904
G1 X76.641 Y127.489 E116.12501
G1 X74.817 Y127.247 E116.33258
G1 X73.024 Y126.847 E116.53986
G1 X71.272 Y126.292 E116.74727
G1 X69.616 Y125.607 E116.94944
G1 X67.985 Y124.760 E117.15686
G1 X66.395 Y123.746 E117.36958
G1 X64.939 Y122.627 E117.57683
G1 X63.617 Y121.417 E117.77905
G1 X62.344 Y120.026 E117.99172
G1 X61.253 Y118.606 E118.19383
G1 X60.264 Y117.056 E118.40127
G1 X59.393 Y115.384 E118.61390
G1 X58.693 Y113.687 E118.82107
G1 X58.162 Y112.006 E119.01992
G1 X57.746 Y110.137 E119.23597
G1 X57.510 Y108.360 E119.43822
G1 X57.429 Y106.511 E119.64702
G1 X57.429 Y33.057 E127.93465
G1 X58.057 Y32.429 E128.03478
G1 X86.597 Y32.429 E131.25493
G1 X86.239 Y33.143 F6000.000
G1 X86.440 Y33.629 E131.31421 F1800.000
G1 X86.364 Y33.851 E131.34069
G1 X86.432 Y34.377 E131.40053
G1 X86.537 Y34.845 E131.45461
G1 X86.673 Y35.274 E131.50544
G1 X86.846 Y35.687 E131.55592
G1 X87.053 Y36.084 E131.60647
G1 X87.279 Y36.437 E131.65370
G1 X87.551 Y36.794 E131.70436
G1 X87.851 Y37.125 E131.75476
G1 X88.183 Y37.429 E131.80558
G1 X88.563 Y37.721 E131.85962
G1 X88.942 Y37.961 E131.91027
G1 X89.341 Y38.166 E131.96083
G1 X89.756 Y38.337 E132.01152
G1 X90.154 Y38.463 E132.05863
G1 X90.592 Y38.561 E132.10920
G1 X91.036 Y38.621 E132.15976
G1 X91.485 Y38.641 E132.21047
G1 X91.932 Y38.624 E132.26102
G1 X92.377 Y38.567 E132.31161
G1 X92.846 Y38.463 E132.36579
G1 X93.274 Y38.327 E132.41648
G1 X93.659 Y38.166 E132.46355
G1 X94.057 Y37.961 E132.51405
G1 X94.436 Y37.721 E132.56471
G1 X94.793 Y37.449 E132.61532
G1 X95.146 Y37.126 E132.66934
G1 X95.449 Y36.793 E132.72012
G1 X95.721 Y36.436 E132.77070
G1 X95.960 Y36.058 E132.82124
G1 X96.166 Y35.659 E132.87183
G1 X96.338 Y35.243 E132.92259
G1 X96.471 Y34.816 E132.97309
G1 X96.560 Y34.408 E133.02025
G1 X96.624 Y33.932 E133.07443
G1 X96.642 Y33.353 E133.13982
G1 X96.852 Y33.143 E133.17319
G1 X101.647 Y33.143 E133.71429
G1 X101.857 Y33.353 E133.74767
G1 X101.857 Y126.647 E144.27383
G1 X101.647 Y126.857 E144.30721
G1 X78.488 Y126.856 E146.92022
G1 X76.718 Y126.779 E147.12010
G1 X74.957 Y126.547 E147.32054
G1 X73.224 Y126.161 E147.52084
G1 X71.530 Y125.626 E147.72122
G1 X69.904 Y124.953 E147.91983
G1 X68.343 Y124.141 E148.11832
G1 X66.817 Y123.170 E148.32237
G1 X65.409 Y122.089 E148.52267
G1 X64.111 Y120.901 E148.72131
G1 X62.901 Y119.579 E148.92344
G1 X61.819 Y118.170 E149.12386
G1 X60.866 Y116.671 E149.32422
G1 X60.047 Y115.096 E149.52456
G1 X59.369 Y113.456 E149.72480
G1 X58.843 Y111.792 E149.92170
G1 X58.452 Y110.028 E150.12556
G1 X58.220 Y108.282 E150.32425
G1 X58.143 Y106.503 E150.52515
G1 X58.143 Y33.353 E158.77852
G1 X58.353 Y33.143 E158.81190
G1 X86.119 Y33.143 E161.94475
G1 E158.94475 F2400.00000
G92 E0
G1 X101.100 Y33.901 F6000.000
G1 E3.00000 F2400.00000
G1 X101.100 Y126.099 E13.40253 F1800.000
G1 X78.508 Y126.099 E15.95143
G1 X76.791 Y126.025 E16.14533
G1 X75.096 Y125.802 E16.33825
G1 X73.427 Y125.432 E16.53111
G1 X71.796 Y124.917 E16.72405
G1 X70.217 Y124.264 E16.91694
G1 X68.701 Y123.474 E17.10980
G1 X67.258 Y122.555 E17.30280
G1 X65.902 Y121.514 E17.49570
G1 X64.641 Y120.359 E17.68860
G1 X63.486 Y119.098 E17.88151
G1 X62.444 Y117.742 E18.07447
G1 X61.526 Y116.299 E18.26740
G1 X60.736 Y114.783 E18.46026
G1 X60.084 Y113.204 E18.65312
G1 X59.571 Y111.581 E18.84512
G1 X59.199 Y109.904 E19.03895
G1 X58.974 Y108.209 E19.23189
G1 X58.901 Y106.491 E19.42587
G1 X58.901 Y33.901 E27.61602
G1 X85.607 Y33.901 E30.62922
G1 X85.688 Y34.525 E30.70020
G1 X85.801 Y35.027 E30.75822
G1 X85.954 Y35.518 E30.81626
G1 X86.152 Y35.994 E30.87438
G1 X86.389 Y36.450 E30.93238
G1 X86.667 Y36.884 E30.99056
G1 X86.978 Y37.290 E31.04828
G1 X87.326 Y37.673 E31.10663
G1 X87.707 Y38.020 E31.16484
G1 X88.115 Y38.333 E31.22281
G1 X88.550 Y38.610 E31.28097
G1 X89.006 Y38.847 E31.33904
G1 X89.482 Y39.045 E31.39709
G1 X89.973 Y39.199 E31.45521
G1 X90.475 Y39.311 E31.51321
G1 X90.986 Y39.378 E31.57138
G1 X91.499 Y39.400 E31.62938
G1 X92.014 Y39.378 E31.68750
G1 X92.524 Y39.311 E31.74555
G1 X93.027 Y39.199 E31.80366
G1 X93.518 Y39.045 E31.86179
G1 X93.994 Y38.847 E31.91986
G1 X94.447 Y38.612 E31.97753
G1 X94.882 Y38.335 E32.03563
G1 X95.293 Y38.020 E32.09405
G1 X95.672 Y37.673 E32.15205
G1 X96.020 Y37.293 E32.21021
G1 X96.334 Y36.884 E32.26837
G1 X96.609 Y36.449 E32.32643
G1 X96.846 Y35.994 E32.38431
G1 X97.045 Y35.519 E32.44242
G1 X97.199 Y35.027 E32.50063
G1 X97.310 Y34.525 E32.55856
G1 X97.394 Y33.901 E32.62968
G1 X100.980 Y33.901 E33.03426
G1 X100.700 Y34.593 F6000.000
G1 X100.385 Y34.615 F6000.000
G1 X100.385 Y125.385 E43.27563 F1800.000
G1 X78.524 Y125.385 E45.74221
G1 X76.853 Y125.313 E45.93085
G1 X75.220 Y125.098 E46.11671
G1 X73.612 Y124.741 E46.30252
G1 X72.041 Y124.246 E46.48845
G1 X70.519 Y123.616 E46.67429
G1 X69.058 Y122.855 E46.86009
G1 X67.668 Y121.969 E47.04607
G1 X66.361 Y120.966 E47.23197
G1 X65.146 Y119.854 E47.41781
G1 X64.034 Y118.639 E47.60367
G1 X63.030 Y117.332 E47.78961
G1 X62.145 Y115.942 E47.97550
G1 X61.384 Y114.481 E48.16130
G1 X60.755 Y112.959 E48.34713
G1 X60.261 Y111.396 E48.53214
G1 X59.903 Y109.779 E48.71893
G1 X59.687 Y108.146 E48.90480
G1 X59.615 Y106.476 E49.09348
G1 X59.615 Y34.615 E57.20132
G1 X84.977 Y34.616 E60.06282
G1 X85.110 Y35.212 E60.13178
G1 X85.282 Y35.762 E60.19679
G1 X85.504 Y36.296 E60.26204
G1 X85.770 Y36.808 E60.32711
G1 X86.081 Y37.295 E60.39232
G1 X86.430 Y37.749 E60.45690
G1 X86.821 Y38.178 E60.52239
G1 X87.248 Y38.568 E60.58771
G1 X87.705 Y38.919 E60.65264
G1 X88.193 Y39.230 E60.71793
G1 X88.704 Y39.495 E60.78299
G1 X89.237 Y39.716 E60.84805
G1 X89.788 Y39.890 E60.91323
G1 X90.350 Y40.015 E60.97820
G1 X90.924 Y40.091 E61.04350
G1 X91.499 Y40.115 E61.10849
G1 X92.076 Y40.091 E61.17361
G1 X92.649 Y40.015 E61.23878
G1 X93.212 Y39.890 E61.30385
G1 X93.763 Y39.716 E61.36905
G1 X94.296 Y39.495 E61.43417
G1 X94.804 Y39.231 E61.49882
G1 X95.291 Y38.921 E61.56394
G1 X95.752 Y38.568 E61.62944
G1 X96.177 Y38.178 E61.69448
G1 X96.568 Y37.753 E61.75966
G1 X96.920 Y37.293 E61.82497
G1 X97.229 Y36.806 E61.89006
G1 X97.494 Y36.297 E61.95479
G1 X97.716 Y35.764 E62.01996
G1 X97.890 Y35.211 E62.08538
G1 X98.021 Y34.615 E62.15426
G1 X100.265 Y34.615 E62.40745
