; generated by Slic3r 1.2.9 on 2016-04-20 at 18:12:45

; external perimeters extrusion width = 1.20mm
; perimeters extrusion width = 1.20mm
; infill extrusion width = 1.20mm
; solid infill extrusion width = 1.20mm
; top infill extrusion width = 1.20mm
; support material extrusion width = 1.20mm

M190 S110 ; set bed temperature
M104 S240 ; set temperature
G28 ; home all axes
G1 Z5 F5000 ; lift nozzle

M109 S240 ; wait for temperature to be reached
G21 ; set units to millimeters
G90 ; use absolute coordinates
M82 ; use absolute distances for extrusion
G92 E0
G1 Z0.400 F3000.000
G1 X26.789 Y29.023 F3000.000
G1 X28.562 Y27.404 E0.46666 F1800.000
G1 X30.767 Y26.453 E0.93331
G1 X32.500 Y26.243 E1.27259
G1 X127.500 Y26.243 E19.73594
G1 X129.868 Y26.640 E20.20260
G1 X131.977 Y27.788 E20.66925 F1800.000
G1 X133.595 Y29.562 E21.13591
G1 X134.547 Y31.766 E21.60257
G1 X134.757 Y33.499 E21.94184
G1 X134.757 Y100.087 E34.88329
G1 X134.359 Y102.456 E35.34995
G1 X133.211 Y104.564 E35.81660
G1 X131.438 Y106.183 E36.28326
G1 X130.062 Y106.877 E36.58274
G1 X60.063 Y133.290 E51.12340
G1 X57.501 Y133.757 E51.62951
G1 X32.500 Y133.757 E56.48848
G1 X30.132 Y133.360 E56.95514
G1 X28.023 Y132.212 E57.42180
G1 X26.405 Y130.438 E57.88846
G1 X25.453 Y128.234 E58.35511
G1 X25.243 Y126.501 E58.69439
G1 X25.243 Y33.499 E76.76923
G1 X25.641 Y31.131 E77.23589
G1 X26.731 Y29.128 E77.67922
G1 E73.67922 F2400.00000
G92 E0
G1 X59.594 Y129.642 F3000.000
G1 E4.00000 F2400.00000
G1 X31.199 Y129.642 E9.51875 F1800.000
G1 X29.358 Y127.802 E10.02456
G1 X29.358 Y32.198 E28.60522
G1 X31.199 Y30.358 E29.11103
G1 X128.801 Y30.358 E48.08020
G1 X130.642 Y32.198 E48.58601
G1 X130.642 Y102.237 E62.19805
G1 X126.635 Y103.794 E63.03344
G1 X123.541 Y100.420 E63.92333
G1 X121.168 Y98.251 E64.54803
G1 X118.617 Y96.294 E65.17300
G1 X115.904 Y94.569 E65.79769
G1 X113.050 Y93.087 E66.42269
G1 X110.079 Y91.859 E67.04755
G1 X107.011 Y90.894 E67.67264
G1 X103.927 Y90.210 E68.28654
G1 X100.740 Y89.789 E68.91131
G1 X97.528 Y89.646 E69.53618
G1 X94.315 Y89.784 E70.16123
G1 X91.128 Y90.201 E70.78592
G1 X87.989 Y90.894 E71.41073
G1 X84.870 Y91.878 E72.04623
G1 X81.900 Y93.110 E72.67120
G1 X79.050 Y94.597 E73.29596
G1 X76.384 Y96.295 E73.91034
G1 X73.831 Y98.251 E74.53543
G1 X71.420 Y100.459 E75.17076
G1 X69.252 Y102.831 E75.79538
G1 X67.295 Y105.384 E76.42045
G1 X65.570 Y108.097 E77.04538
G1 X64.110 Y110.900 E77.65965
G1 X62.860 Y113.920 E78.29490
G1 X61.894 Y116.989 E78.92008
G1 X61.200 Y120.128 E79.54495
G1 X60.788 Y123.260 E80.15890
G1 X60.711 Y124.978 E80.49307
G1 X60.900 Y125.468 E80.59522
G1 X61.206 Y125.776 E80.67950
G1 X59.641 Y129.531 E81.47021
G1 X58.757 Y128.385 F3000.000
G1 X31.719 Y128.385 E86.72498 F1800.000
G1 X30.615 Y127.281 E87.02847
G1 X30.615 Y32.719 E105.40680
G1 X31.719 Y31.615 E105.71029
G1 X128.281 Y31.615 E124.47713
G1 X129.385 Y32.719 E124.78062
G1 X129.385 Y101.377 E138.12442
G1 X126.981 Y102.312 E138.62565
G1 X124.430 Y99.530 E139.35919
G1 X121.977 Y97.287 E140.00517
G1 X119.338 Y95.264 E140.65142
G1 X116.533 Y93.480 E141.29752
G1 X113.582 Y91.947 E141.94385
G1 X110.509 Y90.677 E142.58998
G1 X107.337 Y89.679 E143.23640
G1 X104.091 Y88.962 E143.88232
G1 X100.850 Y88.536 E144.51776
G1 X97.528 Y88.388 E145.16393
G1 X94.206 Y88.531 E145.81029
G1 X90.910 Y88.962 E146.45630
G1 X87.663 Y89.679 E147.10248
G1 X84.440 Y90.696 E147.75930
G1 X81.369 Y91.970 E148.40557
G1 X78.421 Y93.507 E149.05166
G1 X75.617 Y95.296 E149.69805
G1 X73.022 Y97.287 E150.33376
G1 X70.530 Y99.569 E150.99048
G1 X68.288 Y102.023 E151.63644
G1 X66.265 Y104.662 E152.28279
G1 X64.508 Y107.421 E152.91844
G1 X62.970 Y110.369 E153.56467
G1 X61.678 Y113.490 E154.22125
G1 X60.679 Y116.663 E154.86768
G1 X59.961 Y119.910 E155.51392
G1 X59.535 Y123.151 E156.14923
G1 X59.432 Y125.472 E156.60088
G1 X59.621 Y125.962 E156.70303
G1 X59.724 Y126.066 E156.73132
G1 X58.803 Y128.275 E157.19642
G1 X57.919 Y127.129 F3000.000
G1 X32.240 Y127.129 E162.18723 F1800.000
G1 X31.872 Y126.761 E162.28839
G1 X31.872 Y33.239 E180.46440
G1 X32.240 Y32.871 E180.56556
G1 X127.760 Y32.871 E199.13007
G1 X128.128 Y33.239 E199.23123
G1 X128.128 Y100.517 E212.30679
G1 X127.327 Y100.829 E212.47387
G1 X125.319 Y98.641 E213.05107
G1 X122.785 Y96.324 E213.71831
G1 X120.105 Y94.265 E214.37515
G1 X117.210 Y92.418 E215.04267
G1 X114.163 Y90.830 E215.71040
G1 X110.991 Y89.514 E216.37779
G1 X107.662 Y88.464 E217.05618
G1 X104.364 Y87.733 E217.71278
G1 X100.959 Y87.283 E218.38021
G1 X97.528 Y87.131 E219.04769
G1 X94.096 Y87.278 E219.71536
G1 X90.691 Y87.723 E220.38269
G1 X87.338 Y88.464 E221.05023
G1 X84.010 Y89.514 E221.72838
G1 X80.837 Y90.830 E222.39594
G1 X77.792 Y92.418 E223.06336
G1 X74.941 Y94.234 E223.72042
G1 X72.214 Y96.324 E224.38810
G1 X69.641 Y98.680 E225.06620
G1 X67.324 Y101.214 E225.73350
G1 X65.234 Y103.940 E226.40113
G1 X63.418 Y106.792 E227.05811
G1 X61.830 Y109.837 E227.72570
G1 X60.515 Y113.009 E228.39303
G1 X59.479 Y116.284 E229.06065
G1 X58.723 Y119.691 E229.73890
G1 X58.277 Y123.096 E230.40621
G1 X58.152 Y125.967 E230.96470
G1 X58.273 Y126.279 E231.02988
G1 X57.965 Y127.018 E231.18541
G1 X56.926 Y125.901 F3000.000
G1 X33.100 Y125.901 E235.29097 F1800.000
G1 X33.100 Y34.099 E251.10970
G1 X126.900 Y34.099 E267.27289
G1 X126.900 Y98.544 E278.37774
G1 X126.209 Y97.790 E278.55402
G1 X123.597 Y95.399 E279.16419
G1 X120.789 Y93.242 E279.77439
G1 X117.802 Y91.339 E280.38476
G1 X114.658 Y89.703 E280.99532
G1 X111.387 Y88.348 E281.60547
G1 X108.007 Y87.282 E282.21606
G1 X104.497 Y86.509 E282.83547
G1 X101.040 Y86.054 E283.43636
G1 X97.501 Y85.900 E284.04664
G1 X93.962 Y86.054 E284.65710
G1 X90.451 Y86.516 E285.26730
G1 X86.993 Y87.282 E285.87766
G1 X83.615 Y88.348 E286.48802
G1 X80.343 Y89.703 E287.09833
G1 X77.201 Y91.338 E287.70860
G1 X74.213 Y93.241 E288.31907
G1 X71.402 Y95.398 E288.92954
G1 X68.790 Y97.790 E289.53976
G1 X66.399 Y100.402 E290.15008
G1 X64.242 Y103.212 E290.76040
G1 X62.339 Y106.200 E291.37088
G1 X60.703 Y109.341 E291.98124
G1 X59.349 Y112.614 E292.59149
G1 X58.283 Y115.992 E293.20189
G1 X57.509 Y119.504 E293.82151
G1 X57.054 Y122.961 E294.42241
G1 X56.931 Y125.781 E294.90874
G1 X56.239 Y125.490 F3000.000
G1 X55.859 Y124.786 F3000.000
G1 X34.214 Y124.786 E298.63849 F1800.000
G1 X34.214 Y35.214 E314.07325
G1 X125.786 Y35.214 E329.85247
G1 X125.786 Y95.892 E340.30828
G1 X124.314 Y94.544 E340.65211
G1 X121.429 Y92.328 E341.27903
G1 X118.359 Y90.373 E341.90623
G1 X115.129 Y88.693 E342.53357
G1 X111.768 Y87.300 E343.16044
G1 X108.295 Y86.205 E343.78792
G1 X104.690 Y85.411 E344.42412
G1 X101.137 Y84.943 E345.04165
G1 X97.501 Y84.785 E345.66868
G1 X93.865 Y84.943 E346.29588
G1 X90.258 Y85.418 E346.92285
G1 X86.704 Y86.205 E347.55000
G1 X83.233 Y87.300 E348.17712
G1 X79.871 Y88.692 E348.80417
G1 X76.643 Y90.372 E349.43121
G1 X73.573 Y92.328 E350.05846
G1 X70.686 Y94.544 E350.68567
G1 X68.002 Y97.001 E351.31270
G1 X65.545 Y99.686 E351.93979
G1 X63.329 Y102.572 E352.56684
G1 X61.373 Y105.642 E353.19408
G1 X59.692 Y108.870 E353.82123
G1 X58.301 Y112.233 E354.44826
G1 X57.205 Y115.704 E355.07549
G1 X56.410 Y119.311 E355.71190
G1 X55.943 Y122.864 E356.32948
G1 X55.864 Y124.666 E356.64037
G1 E352.64037 F2400.00000
G92 E0
G1 X52.489 Y47.602 F3000.000
G1 E4.00000 F2400.00000
G1 X51.960 Y47.556 E4.09143 F1800.000
G1 X51.438 Y47.415 E4.18462
G1 X50.949 Y47.186 E4.27766
G1 X50.507 Y46.876 E4.37063
G1 X50.133 Y46.504 E4.46158
G1 X49.952 Y46.268 E4.51279
G1 X49.688 Y45.811 E4.60379
G1 X49.504 Y45.304 E4.69673
G1 X49.409 Y44.771 E4.79000
G1 X49.409 Y44.244 E4.88078
G1 X49.447 Y43.949 E4.93206
G1 X49.584 Y43.438 E5.02322
G1 X49.814 Y42.948 E5.11652
G1 X50.124 Y42.506 E5.20948
G1 X50.498 Y42.132 E5.30053
G1 X50.731 Y41.953 E5.35130
G1 X51.188 Y41.688 E5.44239
G1 X51.698 Y41.504 E5.53571
G1 X52.217 Y41.412 E5.62653
G1 X52.513 Y41.398 E5.67771 F1800.000
G1 X53.039 Y41.444 E5.76865
G1 X53.561 Y41.583 E5.86168
G1 X54.053 Y41.813 E5.95529
G1 X54.483 Y42.116 E6.04581
G1 X54.702 Y42.316 E6.09699
G1 X55.041 Y42.720 E6.18782
G1 X55.312 Y43.188 E6.28103
G1 X55.497 Y43.697 E6.37431
G1 X55.589 Y44.216 E6.46522
G1 X55.602 Y44.512 E6.51622
G1 X55.556 Y45.039 E6.60743
G1 X55.416 Y45.562 E6.70078
G1 X55.186 Y46.051 E6.79386
G1 X54.884 Y46.482 E6.88455
G1 X54.684 Y46.702 E6.93569
G1 X54.279 Y47.041 E7.02667
G1 X53.811 Y47.312 E7.11992
G1 X53.303 Y47.495 E7.21302
G1 X52.784 Y47.588 E7.30384
G1 X52.609 Y47.596 E7.33409
G1 X52.204 Y48.049 F3000.000
G1 X52.392 Y48.712 F3000.000
G1 X51.766 Y48.657 E7.44245 F1800.000
G1 X51.053 Y48.465 E7.56952
G1 X50.389 Y48.153 E7.69607
G1 X49.789 Y47.733 E7.82221
G1 X49.295 Y47.241 E7.94245
G1 X49.024 Y46.889 E8.01891
G1 X48.674 Y46.283 E8.13957
G1 X48.424 Y45.593 E8.26591
G1 X48.295 Y44.870 E8.39259
G1 X48.295 Y44.172 E8.51276
G1 X48.352 Y43.732 E8.58925
G1 X48.534 Y43.054 E8.71020
G1 X48.846 Y42.387 E8.83718
G1 X49.268 Y41.787 E8.96357
G1 X49.761 Y41.293 E9.08386
G1 X50.110 Y41.026 E9.15954
G1 X50.716 Y40.674 E9.28028
G1 X51.410 Y40.423 E9.40741
G1 X52.094 Y40.302 E9.52714
G1 X52.537 Y40.282 E9.60353 F1800.000
G1 X53.233 Y40.343 E9.72396
G1 X53.943 Y40.532 E9.85064
G1 X54.614 Y40.846 E9.97822
G1 X55.182 Y41.246 E10.09791
G1 X55.507 Y41.543 E10.17389
G1 X55.957 Y42.077 E10.29418
G1 X56.325 Y42.715 E10.42113
G1 X56.577 Y43.407 E10.54803
G1 X56.698 Y44.093 E10.66804
G1 X56.719 Y44.535 E10.74424
G1 X56.658 Y45.234 E10.86510
G1 X56.466 Y45.947 E10.99232
G1 X56.154 Y46.612 E11.11895
G1 X55.756 Y47.180 E11.23859
G1 X55.457 Y47.508 E11.31493
G1 X54.921 Y47.957 E11.43540
G1 X54.283 Y48.326 E11.56246
G1 X53.592 Y48.575 E11.68896
G1 X52.909 Y48.698 E11.80865
G1 X52.512 Y48.716 E11.87710
G1 X53.140 Y61.959 F3000.000
G1 X54.481 Y61.901 E12.10841 F1800.000
G1 X55.859 Y61.959 E12.34612
G1 X57.208 Y62.136 E12.58065
G1 X58.538 Y62.431 E12.81527
G1 X59.836 Y62.840 E13.04990
G1 X61.094 Y63.361 E13.28445
G1 X62.301 Y63.990 E13.51901
G1 X63.448 Y64.721 E13.75329
G1 X64.512 Y65.537 E13.98438
G1 X65.532 Y66.469 E14.22240
G1 X66.451 Y67.473 E14.45699
G1 X67.280 Y68.552 E14.69153
G1 X68.011 Y69.701 E14.92613
G1 X68.638 Y70.907 E15.16037
G1 X69.153 Y72.144 E15.39128
G1 X69.569 Y73.462 E15.62942
G1 X69.864 Y74.791 E15.86411
G1 X70.041 Y76.140 E16.09853
G1 X70.102 Y77.501 E16.33315
G1 X70.041 Y78.860 E16.56762
G1 X69.864 Y80.209 E16.80205
G1 X69.569 Y81.537 E17.03650
G1 X69.160 Y82.836 E17.27117
G1 X68.638 Y84.093 E17.50577
G1 X68.021 Y85.281 E17.73649
G1 X67.291 Y86.430 E17.97101
G1 X66.451 Y87.527 E18.20907
G1 X65.532 Y88.531 E18.44367
G1 X64.528 Y89.451 E18.67822
G1 X63.448 Y90.279 E18.91285
G1 X62.319 Y91.000 E19.14359
G1 X61.094 Y91.639 E19.38161
G1 X59.836 Y92.160 E19.61623
G1 X58.537 Y92.569 E19.85087
G1 X57.208 Y92.864 E20.08548
G1 X55.859 Y93.041 E20.31991
G1 X54.501 Y93.101 E20.55421
G1 X53.140 Y93.041 E20.78903
G1 X51.792 Y92.864 E21.02329
G1 X50.463 Y92.569 E21.25790
G1 X49.164 Y92.160 E21.49253
G1 X47.906 Y91.639 E21.72712
G1 X46.701 Y91.011 E21.96133
G1 X45.569 Y90.291 E22.19248
G1 X44.472 Y89.451 E22.43052
G1 X43.469 Y88.531 E22.66497
G1 X42.549 Y87.528 E22.89961
G1 X41.721 Y86.448 E23.13404
G1 X41.000 Y85.317 E23.36517
G1 X40.362 Y84.094 E23.60295
G1 X39.841 Y82.836 E23.83752
G1 X39.431 Y81.537 E24.07224
G1 X39.137 Y80.209 E24.30669
G1 X38.960 Y78.860 E24.54112
G1 X38.900 Y77.500 E24.77555
G1 X38.960 Y76.140 E25.01014
G1 X39.137 Y74.791 E25.24457
G1 X39.431 Y73.462 E25.47919
G1 X39.841 Y72.163 E25.71392
G1 X40.362 Y70.907 E25.94827
G1 X40.989 Y69.700 E26.18258
G1 X41.721 Y68.552 E26.41724
G1 X42.537 Y67.489 E26.64813
G1 X43.469 Y66.469 E26.88624
G1 X44.472 Y65.549 E27.12068
G1 X45.552 Y64.720 E27.35527
G1 X46.701 Y63.989 E27.58996
G1 X47.906 Y63.361 E27.82416
G1 X49.164 Y62.840 E28.05875
G1 X50.463 Y62.431 E28.29339
G1 X51.772 Y62.140 E28.52446
G1 X53.021 Y61.975 E28.74154
G1 X53.488 Y61.239 F3000.000
G1 X52.993 Y60.855 F3000.000
G1 X53.042 Y60.848 E28.75001 F1800.000
G1 X54.480 Y60.786 E28.99803 F1800.000
G1 X55.955 Y60.848 E29.25245
G1 X57.402 Y61.038 E29.50392
G1 X58.826 Y61.354 E29.75530
G1 X60.218 Y61.792 E30.00666
G1 X61.565 Y62.351 E30.25802
G1 X62.859 Y63.024 E30.50938
G1 X64.088 Y63.807 E30.76043
G1 X65.228 Y64.682 E31.00809
G1 X66.320 Y65.680 E31.26290
G1 X67.305 Y66.756 E31.51437
G1 X68.194 Y67.912 E31.76568
G1 X68.977 Y69.143 E32.01713
G1 X69.649 Y70.435 E32.26800
G1 X70.200 Y71.762 E32.51555
G1 X70.646 Y73.173 E32.77052
G1 X70.963 Y74.598 E33.02210
G1 X71.152 Y76.043 E33.27327
G1 X71.217 Y77.501 E33.52466
G1 X71.152 Y78.957 E33.77591
G1 X70.963 Y80.403 E34.02710
G1 X70.646 Y81.826 E34.27831
G1 X70.208 Y83.218 E34.52976
G1 X69.649 Y84.565 E34.78113
G1 X68.987 Y85.838 E35.02838
G1 X68.206 Y87.069 E35.27962
G1 X67.306 Y88.244 E35.53459
G1 X66.320 Y89.320 E35.78606
G1 X65.245 Y90.305 E36.03740
G1 X64.087 Y91.193 E36.28873
G1 X62.877 Y91.965 E36.53611
G1 X61.566 Y92.649 E36.79094
G1 X60.217 Y93.208 E37.04249
G1 X58.826 Y93.646 E37.29385
G1 X57.402 Y93.962 E37.54523
G1 X55.957 Y94.152 E37.79640
G1 X54.501 Y94.216 E38.04748
G1 X53.042 Y94.152 E38.29909
G1 X51.598 Y93.962 E38.55009
G1 X50.174 Y93.646 E38.80146
G1 X48.782 Y93.208 E39.05282
G1 X47.434 Y92.649 E39.30428
G1 X46.143 Y91.976 E39.55517
G1 X44.930 Y91.205 E39.80295
G1 X43.755 Y90.305 E40.05785
G1 X42.681 Y89.320 E40.30912
G1 X41.695 Y88.244 E40.56052
G1 X40.808 Y87.088 E40.81171
G1 X40.034 Y85.875 E41.05950
G1 X39.351 Y84.565 E41.31408
G1 X38.793 Y83.217 E41.56547
G1 X38.354 Y81.826 E41.81698
G1 X38.038 Y80.402 E42.06826
G1 X37.849 Y78.956 E42.31945
G1 X37.785 Y77.500 E42.57058
G1 X37.849 Y76.043 E42.82188
G1 X38.038 Y74.598 E43.07306
G1 X38.354 Y73.173 E43.32451
G1 X38.793 Y71.781 E43.57608
G1 X39.351 Y70.435 E43.82711
G1 X40.023 Y69.143 E44.07819
G1 X40.808 Y67.912 E44.32965
G1 X41.682 Y66.772 E44.57717
G1 X42.680 Y65.681 E44.83204
G1 X43.755 Y64.695 E45.08330
G1 X44.912 Y63.807 E45.33475
G1 X46.143 Y63.023 E45.58620
G1 X47.435 Y62.351 E45.83709
G1 X48.783 Y61.792 E46.08854
G1 X50.174 Y61.354 E46.33990
G1 X51.577 Y61.042 E46.58760
G1 X52.874 Y60.870 E46.81303
G1 X61.429 Y61.429 F3000.000
G1 X35.904 Y35.904 E53.06427 F1800.000
G1 X34.905 Y36.488 E53.26474
G1 X59.056 Y60.639 E59.17957
G1 X57.102 Y60.269 E59.52403
G1 X34.905 Y38.072 E64.96025
G1 X34.905 Y39.655 E65.23449
G1 X55.371 Y60.122 E70.24690
G1 X53.800 Y60.134 E70.51904
G1 X34.905 Y41.239 E75.14660
G1 X34.905 Y42.823 E75.42083
G1 X52.354 Y60.272 E79.69435
G1 X51.007 Y60.508 E79.93121
G1 X34.905 Y44.406 E83.87480
G1 X34.905 Y45.990 E84.14903
G1 X49.744 Y60.828 E87.78321
G1 X48.551 Y61.219 E88.00061
G1 X34.905 Y47.573 E91.34259
G1 X34.905 Y49.157 E91.61683
G1 X47.431 Y61.683 E94.68461
G1 X46.379 Y62.215 E94.88871
G1 X34.905 Y50.740 E97.69892
G1 X34.905 Y52.324 E97.97315
G1 X45.379 Y62.798 E100.53834
G1 X44.426 Y63.429 E100.73621
G1 X34.905 Y53.907 E103.06812
G1 X34.905 Y55.491 E103.34236
G1 X43.531 Y64.117 E105.45489
G1 X42.694 Y64.863 E105.64911
G1 X34.905 Y57.074 E107.55673
G1 X34.905 Y58.658 E107.83097
G1 X41.901 Y65.654 E109.54437
G1 X41.150 Y66.487 E109.73854
G1 X34.905 Y60.241 E111.26807
G1 X34.905 Y61.825 E111.54231
G1 X40.463 Y67.383 E112.90351
G1 X39.828 Y68.332 E113.10119
G1 X34.905 Y63.409 E114.30688
G1 X34.905 Y64.992 E114.58111
G1 X39.241 Y69.328 E115.64307
G1 X38.706 Y70.377 E115.84693
G1 X34.905 Y66.576 E116.77789
G1 X34.905 Y68.159 E117.05212
G1 X38.242 Y71.496 E117.86939
G1 X37.847 Y72.685 E118.08627
G1 X34.905 Y69.743 E118.80677
G1 X34.905 Y71.326 E119.08100
G1 X37.522 Y73.944 E119.72204
G1 X37.280 Y75.285 E119.95814
G1 X34.905 Y72.910 E120.53995
G1 X34.905 Y74.493 E120.81419
G1 X37.138 Y76.726 E121.36104
G1 X37.118 Y78.290 E121.63184
G1 X34.905 Y76.077 E122.17382
G1 X34.905 Y77.660 E122.44805
G1 X37.258 Y80.013 E123.02428
G1 X37.617 Y81.956 E123.36646
G1 X34.905 Y79.244 E124.03071
G1 X34.905 Y80.827 E124.30495
G1 X38.375 Y84.298 E125.15495
G1 X34.905 Y83.995 F3000.000
G1 X59.271 Y108.361 E131.12255 F1800.000
G1 X59.814 Y107.320 E131.32586
G1 X44.328 Y91.835 E135.11836
G1 X47.703 Y93.626 F3000.000
G1 X60.356 Y106.279 E138.21720 F1800.000
G1 X60.911 Y105.250 E138.41961
G1 X50.043 Y94.383 E141.08114
G1 X51.987 Y94.743 E141.42351
G1 X61.527 Y104.283 E143.75987
