; generated by Slic3r 1.2.9 on 2016-04-19 at 00:15:24

; external perimeters extrusion width = 0.80mm
; perimeters extrusion width = 1.34mm
; infill extrusion width = 1.34mm
; solid infill extrusion width = 1.34mm
; top infill extrusion width = 1.34mm
; support material extrusion width = 0.80mm

M190 S110 ; set bed temperature
M104 S240 ; set temperature
G28 ; home all axes
G1 Z5 F5000 ; lift nozzle

M109 S240 ; wait for temperature to be reached
G21 ; set units to millimeters
G90 ; use absolute coordinates
M82 ; use absolute distances for extrusion
G92 E0
G1 Z0.400 F6000.000
G1 X27.327 Y29.220 F6000.000
G1 X29.083 Y27.721 E0.26051 F1800.000
G1 X31.243 Y26.905 E0.52103
G1 X32.500 Y26.786 E0.66350
G1 X57.501 Y26.786 E3.48428
G1 X59.871 Y27.219 E3.75611
G1 X129.870 Y53.630 E12.19735 F1800.000
G1 X131.858 Y54.804 E12.45786
G1 X133.331 Y56.582 E12.71837
G1 X134.114 Y58.755 E12.97889
G1 X134.214 Y59.911 E13.10991
G1 X134.214 Y126.499 E20.62282
G1 X133.817 Y128.774 E20.88334
G1 X132.673 Y130.780 E21.14385
G1 X130.917 Y132.279 E21.40436
G1 X128.757 Y133.095 E21.66488
G1 X127.500 Y133.214 E21.80735
G1 X32.500 Y133.214 E32.52590
G1 X30.225 Y132.817 E32.78642
G1 X28.220 Y131.673 E33.04693
G1 X26.720 Y129.917 E33.30744
G1 X25.905 Y127.757 E33.56796
G1 X25.786 Y126.499 E33.71043
G1 X25.786 Y33.501 E44.20322
G1 X26.183 Y31.226 E44.46373
G1 X27.268 Y29.325 E44.71070
G1 E41.71070 F2400.00000
G92 E0
G1 X126.420 Y55.278 F6000.000
G1 E3.00000 F2400.00000
G1 X131.428 Y57.226 E3.60626 F1800.000
G1 X131.428 Y128.126 E11.60577
G1 X129.127 Y130.427 E11.97290
G1 X30.873 Y130.427 E23.05859
G1 X28.572 Y128.126 E23.42573
G1 X28.572 Y31.874 E34.28565
G1 X30.873 Y29.573 E34.65278
G1 X58.281 Y29.573 E37.74513
G1 X59.723 Y30.170 E37.92128
G1 X60.830 Y31.275 E38.09770
G1 X61.429 Y32.719 E38.27416
G1 X61.429 Y33.425 E38.35375
G1 X61.568 Y36.629 E38.71561
G1 X61.977 Y39.747 E39.07046
G1 X62.657 Y42.819 E39.42542
G1 X63.603 Y45.821 E39.78058
G1 X64.818 Y48.757 E40.13906
G1 X66.272 Y51.547 E40.49398
G1 X67.964 Y54.201 E40.84912
G1 X69.881 Y56.696 E41.20416
G1 X72.007 Y59.015 E41.55913
G1 X74.327 Y61.139 E41.91404
G1 X76.799 Y63.036 E42.26560
G1 X79.453 Y64.727 E42.62064
G1 X82.244 Y66.182 E42.97573
G1 X85.150 Y67.387 E43.33066
G1 X88.151 Y68.334 E43.68573
G1 X91.254 Y69.023 E44.04431
G1 X94.372 Y69.432 E44.39914
G1 X97.517 Y69.567 E44.75429
G1 X100.629 Y69.432 E45.10579
G1 X103.748 Y69.023 E45.46066
G1 X106.819 Y68.342 E45.81560
G1 X109.822 Y67.398 E46.17076
G1 X112.756 Y66.182 E46.52914
G1 X115.549 Y64.727 E46.88439
G1 X118.201 Y63.036 E47.23930
G1 X120.695 Y61.120 E47.59414
G1 X122.993 Y59.015 E47.94577
G1 X126.339 Y55.366 E48.50431
G1 X126.616 Y56.120 F6000.000
G1 X130.714 Y57.714 E49.00034 F1800.000
G1 X130.714 Y127.831 E56.91136
G1 X128.831 Y129.713 E57.21174
G1 X31.169 Y129.713 E68.23068
G1 X29.286 Y127.831 E68.53106
G1 X29.286 Y32.169 E79.32423
G1 X31.169 Y30.287 E79.62462
G1 X58.139 Y30.287 E82.66757
G1 X59.319 Y30.775 E82.81169
G1 X60.225 Y31.679 E82.95606
G1 X60.715 Y32.861 E83.10044
G1 X60.715 Y33.440 E83.16573
G1 X60.856 Y36.691 E83.53286
G1 X61.273 Y39.871 E83.89477
G1 X61.967 Y43.004 E84.25678
G1 X62.931 Y46.066 E84.61895
G1 X64.170 Y49.059 E84.98447
G1 X65.653 Y51.904 E85.34643
G1 X67.379 Y54.611 E85.70861
G1 X69.334 Y57.155 E86.07067
G1 X71.502 Y59.521 E86.43268
G1 X73.844 Y61.667 E86.79113
G1 X76.389 Y63.622 E87.15324
G1 X79.096 Y65.346 E87.51531
G1 X81.942 Y66.830 E87.87743
G1 X84.905 Y68.059 E88.23941
G1 X87.966 Y69.025 E88.60150
G1 X91.129 Y69.727 E88.96712
G1 X94.310 Y70.144 E89.32899
G1 X97.517 Y70.282 E89.69117
G1 X100.691 Y70.144 E90.04970
G1 X103.872 Y69.727 E90.41163
G1 X107.004 Y69.033 E90.77359
G1 X110.066 Y68.069 E91.13578
G1 X113.058 Y66.830 E91.50120
G1 X115.906 Y65.346 E91.86348
G1 X118.611 Y63.622 E92.22545
G1 X121.131 Y61.687 E92.58383
G1 X123.498 Y59.520 E92.94596
G1 X126.535 Y56.209 E93.45291
G1 X126.813 Y56.963 F6000.000
G1 X130.000 Y58.203 E93.83871 F1800.000
G1 X130.000 Y127.535 E101.66123
G1 X128.535 Y128.999 E101.89486
G1 X31.465 Y128.999 E112.84705
G1 X30.000 Y127.535 E113.08068
G1 X30.000 Y32.465 E123.80710
G1 X31.465 Y31.001 E124.04073
G1 X57.997 Y31.001 E127.03430
G1 X58.915 Y31.381 E127.14639
G1 X59.619 Y32.084 E127.25871
G1 X60.001 Y33.004 E127.37100
G1 X60.001 Y33.456 E127.42199
G1 X60.144 Y36.753 E127.79440
G1 X60.569 Y39.996 E128.16336
G1 X61.276 Y43.189 E128.53242
G1 X62.259 Y46.310 E128.90160
G1 X63.522 Y49.361 E129.27416
G1 X65.034 Y52.261 E129.64317
G1 X66.793 Y55.021 E130.01239
G1 X68.786 Y57.615 E130.38148
G1 X70.996 Y60.026 E130.75052
G1 X73.385 Y62.214 E131.11602
G1 X75.979 Y64.207 E131.48517
G1 X78.738 Y65.965 E131.85427
G1 X81.640 Y67.478 E132.22341
G1 X84.661 Y68.730 E132.59244
G1 X87.781 Y69.715 E132.96155
G1 X91.005 Y70.431 E133.33421
G1 X94.247 Y70.856 E133.70313
G1 X97.517 Y70.997 E134.07234
G1 X100.753 Y70.856 E134.43789
G1 X103.996 Y70.431 E134.80687
G1 X107.189 Y69.723 E135.17587
G1 X110.311 Y68.741 E135.54509
G1 X113.360 Y67.478 E135.91755
G1 X116.263 Y65.965 E136.28685
G1 X119.021 Y64.207 E136.65588
G1 X121.590 Y62.235 E137.02130
G1 X124.004 Y60.026 E137.39044
G1 X126.732 Y57.052 E137.84579
G1 X127.009 Y57.806 F6000.000
G1 X129.285 Y58.691 E138.12136 F1800.000
G1 X129.285 Y127.239 E145.85539
G1 X128.240 Y128.285 E146.02227
G1 X31.760 Y128.285 E156.90771
G1 X30.715 Y127.239 E157.07459
G1 X30.715 Y32.761 E167.73426
G1 X31.760 Y31.715 E167.90114
G1 X57.855 Y31.715 E170.84531
G1 X58.511 Y31.986 E170.92538
G1 X59.014 Y32.489 E171.00564
G1 X59.286 Y33.146 E171.08585
G1 X59.287 Y33.471 E171.12255
G1 X59.432 Y36.815 E171.50022
G1 X59.865 Y40.120 E171.87624
G1 X60.586 Y43.374 E172.25235
G1 X61.588 Y46.555 E172.62854
G1 X62.874 Y49.663 E173.00814
G1 X64.415 Y52.619 E173.38420
G1 X66.207 Y55.431 E173.76045
G1 X68.238 Y58.074 E174.13656
G1 X70.490 Y60.532 E174.51264
G1 X72.949 Y62.782 E174.88869
G1 X75.570 Y64.793 E175.26138
G1 X78.381 Y66.584 E175.63752
G1 X81.337 Y68.126 E176.01368
G1 X84.417 Y69.402 E176.38976
G1 X87.596 Y70.406 E176.76590
G1 X90.881 Y71.135 E177.14559
G1 X94.185 Y71.568 E177.52156
G1 X97.517 Y71.712 E177.89779
G1 X100.816 Y71.568 E178.27038
G1 X104.120 Y71.135 E178.64640
G1 X107.374 Y70.414 E179.02244
G1 X110.555 Y69.413 E179.39868
G1 X113.663 Y68.126 E179.77818
G1 X116.621 Y66.584 E180.15451
G1 X119.432 Y64.793 E180.53059
G1 X122.073 Y62.762 E180.90654
G1 X124.509 Y60.531 E181.27921
G1 X126.928 Y57.894 E181.68295
G1 X127.205 Y58.648 F6000.000
G1 X128.571 Y59.180 E181.84830 F1800.000
G1 X128.571 Y126.943 E189.49384
G1 X127.944 Y127.571 E189.59397
G1 X32.056 Y127.571 E200.41265
G1 X31.429 Y126.943 E200.51278
G1 X31.429 Y33.057 E211.10570
G1 X32.056 Y32.429 E211.20583
G1 X57.713 Y32.429 E214.10061
G1 X58.107 Y32.592 E214.14865
G1 X58.409 Y32.894 E214.19685
G1 X58.572 Y33.288 E214.24498
G1 X58.719 Y36.877 E214.65031
G1 X59.166 Y40.275 E215.03691
G1 X59.895 Y43.560 E215.41654
G1 X60.916 Y46.799 E215.79975
G1 X62.226 Y49.965 E216.18639
G1 X63.796 Y52.976 E216.56949
G1 X65.622 Y55.841 E216.95278
G1 X67.691 Y58.534 E217.33592
G1 X69.985 Y61.037 E217.71903
G1 X72.466 Y63.310 E218.09862
G1 X75.160 Y65.379 E218.48186
G1 X78.024 Y67.203 E218.86503
G1 X81.035 Y68.774 E219.24822
G1 X84.172 Y70.074 E219.63134
G1 X87.411 Y71.096 E220.01450
G1 X90.757 Y71.839 E220.40124
G1 X94.092 Y72.277 E220.78074
G1 X97.485 Y72.427 E221.16401
G1 X100.878 Y72.280 E221.54713
G1 X104.244 Y71.839 E221.93020
G1 X107.589 Y71.096 E222.31676
G1 X110.799 Y70.085 E222.69654
G1 X113.936 Y68.787 E223.07957
G1 X116.978 Y67.204 E223.46644
G1 X119.816 Y65.396 E223.84603
G1 X122.509 Y63.330 E224.22907
G1 X125.014 Y61.037 E224.61224
G1 X127.124 Y58.737 E224.96439
G1 X127.402 Y59.491 F6000.000
G1 X127.857 Y59.668 E225.01950 F1800.000
G1 X127.857 Y126.647 E232.57656
G1 X127.648 Y126.857 E232.60993
G1 X32.352 Y126.857 E243.36186
G1 X32.143 Y126.647 E243.39524
G1 X32.143 Y33.353 E253.92141
G1 X32.352 Y33.143 E253.95478
G1 X57.571 Y33.143 E256.80018
G1 X57.702 Y33.198 E256.81619
G1 X57.804 Y33.299 E256.83234
G1 X57.858 Y33.430 E256.84838
G1 X58.007 Y36.940 E257.24470
G1 X58.462 Y40.399 E257.63832
G1 X59.213 Y43.775 E258.02853
G1 X60.244 Y47.043 E258.41526
G1 X61.588 Y50.287 E258.81141
G1 X63.177 Y53.334 E259.19907
G1 X65.036 Y56.251 E259.58937
G1 X67.143 Y58.993 E259.97955
G1 X69.479 Y61.542 E260.36967
G1 X72.030 Y63.877 E260.75983
G1 X74.775 Y65.982 E261.15012
G1 X77.693 Y67.838 E261.54033
G1 X80.761 Y69.435 E261.93055
G1 X83.957 Y70.756 E262.32072
G1 X87.226 Y71.787 E262.70740
G1 X90.655 Y72.545 E263.10365
G1 X94.061 Y72.992 E263.49122
G1 X97.516 Y73.141 E263.88150
G1 X100.940 Y72.992 E264.26816
G1 X104.368 Y72.543 E264.65827
G1 X107.774 Y71.787 E265.05188
G1 X111.073 Y70.746 E265.44218
G1 X114.239 Y69.435 E265.82874
G1 X117.335 Y67.823 E266.22265
G1 X120.251 Y65.964 E266.61279
G1 X122.969 Y63.877 E266.99938
G1 X125.520 Y61.542 E267.38955
G1 X127.321 Y59.580 E267.69010
G1 X127.100 Y60.941 F6000.000
G1 X127.100 Y126.099 E275.04176 F1800.000
G1 X32.900 Y126.099 E285.67005
G1 X32.900 Y33.901 E296.07258
G1 X57.118 Y33.901 E298.80502
G1 X57.253 Y37.021 E299.15735
G1 X57.713 Y40.515 E299.55496
G1 X58.492 Y44.007 E299.95870
G1 X59.537 Y47.317 E300.35027
G1 X60.884 Y50.574 E300.74788
G1 X62.512 Y53.700 E301.14555
G1 X64.406 Y56.673 E301.54330
G1 X66.552 Y59.469 E301.94096
G1 X68.932 Y62.067 E302.33852
G1 X71.531 Y64.448 E302.73617
G1 X74.327 Y66.594 E303.13392
G1 X77.301 Y68.487 E303.53161
G1 X80.427 Y70.115 E303.92927
G1 X83.683 Y71.464 E304.32692
G1 X87.044 Y72.523 E304.72456
G1 X90.485 Y73.287 E305.12225
G1 X93.979 Y73.746 E305.51983
G1 X97.501 Y73.900 E305.91757
G1 X101.022 Y73.746 E306.31519
G1 X104.515 Y73.287 E306.71277
G1 X107.956 Y72.523 E307.11039
G1 X111.368 Y71.443 E307.51416
G1 X114.573 Y70.115 E307.90562
G1 X117.701 Y68.487 E308.30348
G1 X120.674 Y66.594 E308.70109
G1 X123.468 Y64.448 E309.09867
G1 X126.067 Y62.068 E309.49629
G1 X127.019 Y61.029 E309.65523
G1 X126.904 Y61.716 F6000.000
G1 X126.386 Y62.744 F6000.000
G1 X126.386 Y125.385 E316.72284 F1800.000
G1 X33.614 Y125.385 E327.18998
G1 X33.614 Y34.615 E337.43136
G1 X56.434 Y34.615 E340.00605
G1 X56.541 Y37.083 E340.28475
G1 X57.009 Y40.640 E340.68948
G1 X57.802 Y44.193 E341.10026
G1 X58.865 Y47.562 E341.49880
G1 X60.236 Y50.876 E341.90344
G1 X61.893 Y54.057 E342.30816
G1 X63.820 Y57.083 E342.71295
G1 X66.005 Y59.928 E343.11763
G1 X68.426 Y62.573 E343.52222
G1 X71.071 Y64.996 E343.92692
G1 X73.917 Y67.180 E344.33172
G1 X76.943 Y69.106 E344.73644
G1 X80.124 Y70.763 E345.14112
G1 X83.439 Y72.135 E345.54582
G1 X86.859 Y73.214 E345.95049
G1 X90.361 Y73.991 E346.35521
G1 X93.917 Y74.458 E346.75984
G1 X97.501 Y74.615 E347.16460
G1 X101.084 Y74.459 E347.56926
G1 X104.640 Y73.991 E347.97389
G1 X108.141 Y73.214 E348.37859
G1 X111.613 Y72.115 E348.78939
G1 X114.875 Y70.763 E349.18784
G1 X118.058 Y69.106 E349.59273
G1 X121.084 Y67.180 E349.99739
G1 X123.928 Y64.996 E350.40200
G1 X126.297 Y62.825 E350.76455
G1 X125.672 Y64.367 F6000.000
G1 X125.672 Y124.671 E357.56850 F1800.000
G1 X34.328 Y124.671 E367.87449
G1 X34.328 Y35.329 E377.95471
G1 X55.750 Y35.330 E380.37167
G1 X55.829 Y37.145 E380.57674
G1 X56.305 Y40.764 E380.98857
G1 X57.112 Y44.379 E381.40640
G1 X58.193 Y47.806 E381.81190
G1 X59.588 Y51.178 E382.22358
G1 X61.274 Y54.414 E382.63534
G1 X63.235 Y57.493 E383.04717
G1 X65.457 Y60.388 E383.45888
G1 X67.921 Y63.078 E383.87050
G1 X70.612 Y65.543 E384.28225
G1 X73.507 Y67.766 E384.69409
G1 X76.586 Y69.725 E385.10584
G1 X79.822 Y71.411 E385.51755
G1 X83.194 Y72.807 E385.92930
G1 X86.674 Y73.904 E386.34099
G1 X90.237 Y74.695 E386.75275
G1 X93.855 Y75.171 E387.16443
G1 X97.501 Y75.330 E387.57622
G1 X101.146 Y75.171 E387.98791
G1 X104.764 Y74.695 E388.39958
G1 X108.327 Y73.904 E388.81137
G1 X111.857 Y72.786 E389.22920
G1 X115.177 Y71.411 E389.63464
G1 X118.416 Y69.726 E390.04655
G1 X121.494 Y67.766 E390.45826
G1 X124.387 Y65.543 E390.86992
G1 X125.583 Y64.448 E391.05288
G1 E388.05288 F2400.00000
G92 E0
G1 X69.376 Y78.514 F6000.000
G1 E3.00000 F2400.00000
G1 X69.667 Y79.826 E3.15168 F1800.000
G1 X69.842 Y81.158 E3.30321
G1 X69.901 Y82.499 E3.45474
G1 X69.842 Y83.842 E3.60641
G1 X69.667 Y85.174 E3.75794
G1 X69.376 Y86.486 E3.90959
G1 X68.972 Y87.768 E4.06117
G1 X68.457 Y89.009 E4.21280
G1 X67.847 Y90.181 E4.36192
G1 X67.127 Y91.316 E4.51352
G1 X66.298 Y92.399 E4.66741
G1 X65.390 Y93.390 E4.81903
G1 X64.399 Y94.297 E4.97063
G1 X63.333 Y95.115 E5.12230
G1 X62.218 Y95.826 E5.27143
G1 X61.009 Y96.457 E5.42530
G1 X59.768 Y96.972 E5.57693
G1 X58.486 Y97.375 E5.72860
G1 X57.174 Y97.667 E5.88025
G1 X55.842 Y97.841 E6.03179
G1 X54.501 Y97.900 E6.18321
G1 X53.157 Y97.841 E6.33497
G1 X51.826 Y97.667 E6.48640
G1 X50.514 Y97.375 E6.63805
G1 X49.232 Y96.972 E6.78971
G1 X47.991 Y96.457 E6.94133
G1 X46.801 Y95.837 E7.09272
G1 X45.684 Y95.126 E7.24212
G1 X44.601 Y94.297 E7.39600
G1 X43.611 Y93.390 E7.54753
G1 X42.702 Y92.399 E7.69920
G1 X41.885 Y91.333 E7.85073
G1 X41.173 Y90.217 E8.00010
G1 X40.543 Y89.009 E8.15382
G1 X40.029 Y87.767 E8.30543
G1 X39.624 Y86.486 E8.45704
G1 X39.334 Y85.174 E8.60868
G1 X39.159 Y83.842 E8.76021
G1 X39.101 Y82.499 E8.91186
G1 X39.159 Y81.158 E9.06339
G1 X39.334 Y79.826 E9.21491
G1 X39.624 Y78.514 E9.36656
G1 X40.029 Y77.232 E9.51817
G1 X40.543 Y75.991 E9.66973
G1 X41.162 Y74.799 E9.82130
G1 X41.885 Y73.667 E9.97289
G1 X42.702 Y72.601 E10.12441
G1 X43.611 Y71.610 E10.27608
G1 X44.601 Y70.703 E10.42758
G1 X45.666 Y69.884 E10.57920
G1 X46.801 Y69.163 E10.73090
G1 X47.991 Y68.543 E10.88228
G1 X49.232 Y68.028 E11.03390
G1 X50.515 Y67.625 E11.18557
G1 X51.827 Y67.333 E11.33722
G1 X53.157 Y67.159 E11.48863
G1 X54.481 Y67.100 E11.63811 F1800.000
G1 X55.842 Y67.159 E11.79182
G1 X57.174 Y67.333 E11.94337
G1 X58.486 Y67.625 E12.09502
G1 X59.768 Y68.028 E12.24669
G1 X61.009 Y68.543 E12.39829
G1 X62.201 Y69.163 E12.54990
G1 X63.333 Y69.885 E12.70132
G1 X64.383 Y70.690 E12.85069
G1 X65.390 Y71.610 E13.00456
G1 X66.298 Y72.601 E13.15618
G1 X67.116 Y73.667 E13.30777
G1 X67.838 Y74.800 E13.45931
G1 X68.457 Y75.991 E13.61085
G1 X68.964 Y77.214 E13.76017
G1 X69.340 Y78.399 E13.90047
G1 X70.145 Y78.732 F6000.000
G1 X70.057 Y78.298 F6000.000
G1 X70.371 Y79.702 E14.06278 F1800.000
G1 X70.554 Y81.095 E14.22133
G1 X70.616 Y82.499 E14.37990
G1 X70.554 Y83.905 E14.53861
G1 X70.371 Y85.298 E14.69717
G1 X70.066 Y86.671 E14.85587
G1 X69.644 Y88.012 E15.01449
G1 X69.105 Y89.311 E15.17315
G1 X68.467 Y90.538 E15.32922
G1 X67.713 Y91.725 E15.48783
G1 X66.846 Y92.858 E15.64881
G1 X65.896 Y93.895 E15.80752
G1 X64.859 Y94.845 E15.96617
G1 X63.743 Y95.701 E16.12484
G1 X62.576 Y96.445 E16.28095
G1 X61.312 Y97.105 E16.44188
G1 X60.012 Y97.644 E16.60062
G1 X58.671 Y98.066 E16.75930
G1 X57.298 Y98.371 E16.91799
G1 X55.904 Y98.554 E17.07659
G1 X54.501 Y98.615 E17.23502
G1 X53.095 Y98.553 E17.39379
G1 X51.702 Y98.371 E17.55228
G1 X50.329 Y98.066 E17.71096
G1 X48.988 Y97.644 E17.86965
G1 X47.688 Y97.105 E18.02835
G1 X46.443 Y96.456 E18.18674
G1 X45.274 Y95.712 E18.34312
G1 X44.141 Y94.845 E18.50407
G1 X43.105 Y93.895 E18.66266
G1 X42.155 Y92.858 E18.82137
G1 X41.299 Y91.743 E18.97993
G1 X40.554 Y90.575 E19.13630
G1 X39.895 Y89.311 E19.29706
G1 X39.357 Y88.012 E19.45572
G1 X38.934 Y86.671 E19.61439
G1 X38.630 Y85.298 E19.77310
G1 X38.447 Y83.904 E19.93166
G1 X38.386 Y82.499 E20.09032
G1 X38.447 Y81.096 E20.24886
G1 X38.630 Y79.702 E20.40741
G1 X38.934 Y78.329 E20.56613
G1 X39.357 Y76.988 E20.72479
G1 X39.895 Y75.690 E20.88334
G1 X40.543 Y74.442 E21.04197
G1 X41.300 Y73.257 E21.20063
G1 X42.155 Y72.142 E21.35916
G1 X43.106 Y71.105 E21.51787
G1 X44.141 Y70.155 E21.67637
G1 X45.257 Y69.299 E21.83507
G1 X46.444 Y68.544 E21.99380
G1 X47.689 Y67.895 E22.15219
G1 X48.988 Y67.356 E22.31089
G1 X50.330 Y66.934 E22.46957
G1 X51.702 Y66.629 E22.62825
G1 X53.095 Y66.447 E22.78670
G1 X54.480 Y66.385 E22.94317 F1800.000
G1 X55.904 Y66.446 E23.10392
G1 X57.298 Y66.629 E23.26255
G1 X58.671 Y66.934 E23.42124
G1 X60.012 Y67.356 E23.57992
G1 X61.311 Y67.895 E23.73858
G1 X62.559 Y68.544 E23.89724
G1 X63.743 Y69.299 E24.05571
G1 X64.842 Y70.142 E24.21202
G1 X65.895 Y71.104 E24.37294
